Sources/FrostedUI/Resources/Icons.xcassets/receipt32.imageset/receipt-32.svg

<svg width="32" height="32" viewBox="0 0 32 32" fill="none" xmlns="http://www.w3.org/2000/svg" data-fui-icon="true">
  <path
    d="M27.2939 1.15405C27.5205 0.98077 27.8262 0.950676 28.082 1.0769C28.3379 1.20324 28.4999 1.46443 28.5 1.74976V30.2498C28.5 30.5351 28.3379 30.7962 28.082 30.9226C27.8262 31.0489 27.5205 31.0188 27.2939 30.8455L23.833 28.1941L20.373 30.8455C20.1041 31.0515 19.73 31.0513 19.4609 30.8455L16 28.1941L12.5391 30.8455C12.27 31.0513 11.8959 31.0515 11.627 30.8455L8.16602 28.1941L4.70605 30.8455C4.47949 31.0189 4.17385 31.0489 3.91797 30.9226C3.66207 30.7962 3.5 30.5352 3.5 30.2498V1.74976C3.5001 1.46441 3.66209 1.20323 3.91797 1.0769C4.17378 0.950717 4.47953 0.980709 4.70605 1.15405L8.16602 3.80444L11.627 1.15405L11.7324 1.08667C11.9878 0.951455 12.3036 0.973997 12.5391 1.15405L16 3.80444L19.4609 1.15405L19.5654 1.08667C19.821 0.95128 20.1375 0.973723 20.373 1.15405L23.833 3.80444L27.2939 1.15405ZM16.4561 5.34546C16.187 5.55146 15.813 5.55141 15.5439 5.34546L12.083 2.69409L8.62305 5.34546C8.35406 5.55149 7.98002 5.55131 7.71094 5.34546L5 3.26831V28.7302L7.71094 26.6541L7.81641 26.5867C8.07181 26.4517 8.38772 26.4739 8.62305 26.6541L12.083 29.3044L15.5439 26.6541L15.6494 26.5867C15.9048 26.4516 16.2207 26.4739 16.4561 26.6541L19.916 29.3044L23.377 26.6541C23.6459 26.4482 24.02 26.4483 24.2891 26.6541L27 28.7302V3.26831L24.2891 5.34546C24.02 5.55138 23.646 5.55149 23.377 5.34546L19.916 2.69409L16.4561 5.34546ZM16.875 20.2498C17.2891 20.2498 17.6249 20.5857 17.625 20.9998C17.625 21.4139 17.2892 21.7497 16.875 21.7498H10.125C9.71079 21.7498 9.375 21.414 9.375 20.9998C9.37514 20.5857 9.71087 20.2498 10.125 20.2498H16.875ZM21.875 15.2498C22.2891 15.2498 22.6249 15.5857 22.625 15.9998C22.625 16.4139 22.2892 16.7497 21.875 16.7498H10.125C9.71079 16.7498 9.375 16.414 9.375 15.9998C9.37514 15.5857 9.71087 15.2498 10.125 15.2498H21.875ZM21.875 10.2498C22.2891 10.2498 22.6249 10.5857 22.625 10.9998C22.625 11.4139 22.2892 11.7497 21.875 11.7498H10.125C9.71079 11.7498 9.375 11.414 9.375 10.9998C9.37514 10.5857 9.71087 10.2498 10.125 10.2498H21.875Z"
    fill="currentColor"
  />
</svg>

<svg xmlns="http://www.w3.org/2000/svg" width="32" height="32" fill="none" data-fui-icon="true" viewBox="0 0 32 32"><path fill="currentColor" d="M27.294 1.154a.751.751 0 0 1 1.206.596v28.5a.75.75 0 0 1-1.206.596l-3.461-2.652-3.46 2.652a.75.75 0 0 1-.912 0L16 28.194l-3.46 2.652a.75.75 0 0 1-.913 0l-3.461-2.652-3.46 2.652A.75.75 0 0 1 3.5 30.25V1.75a.75.75 0 0 1 1.206-.596l3.46 2.65 3.461-2.65.105-.067a.75.75 0 0 1 .807.067L16 3.804l3.46-2.65.105-.067a.75.75 0 0 1 .808.067l3.46 2.65zM16.456 5.345a.75.75 0 0 1-.912 0l-3.461-2.65-3.46 2.65a.75.75 0 0 1-.912 0L5 3.268V28.73l2.71-2.076.106-.067a.75.75 0 0 1 .807.067l3.46 2.65 3.46-2.65.106-.067a.75.75 0 0 1 .807.067l3.46 2.65 3.461-2.65a.75.75 0 0 1 .912 0L27 28.73V3.268l-2.71 2.077a.75.75 0 0 1-.913 0l-3.461-2.65zm.419 14.905a.75.75 0 0 1 0 1.5h-6.75a.75.75 0 0 1 0-1.5zm5-5a.75.75 0 0 1 0 1.5h-11.75a.75.75 0 0 1 0-1.5zm0-5a.75.75 0 0 1 0 1.5h-11.75a.75.75 0 0 1 0-1.5z"/></svg>
